svgs/aldiko.svg

<svg width="24" height="24" viewBox="0 0 24 24" fill="none" xmlns="http://www.w3.org/2000/svg">
<path fill-rule="evenodd" clip-rule="evenodd" d="M13.3182 3.04488C14.442 3.13274 15.4928 3.35815 16.3619 3.6978C17.2045 4.02704 17.8065 4.40545 18.3495 4.94711C19.0019 5.59776 19.336 6.21248 19.5443 7.14503C19.6053 7.41822 19.6056 7.44729 19.6216 13.3566C19.6362 18.7865 19.6416 19.3039 19.6854 19.4121C19.9046 19.9538 20.1934 20.1805 20.7246 20.2273L21 20.2517L20.6666 20.4127C19.4965 20.9777 18.1978 21.1387 16.8982 20.8799C15.9085 20.6827 15.1053 20.2692 14.4644 19.6268C13.9992 19.1604 13.6666 18.658 13.4042 18.0249C13.3312 17.8488 13.2585 17.6734 13.2426 17.6351C13.2178 17.5754 13.208 17.5712 13.1742 17.6062C13.1525 17.6286 13.0482 17.8435 12.9425 18.0837C12.6096 18.8402 12.2588 19.3888 11.8121 19.8516C11.3085 20.3734 10.7266 20.6591 9.84202 20.8189C9.53329 20.8747 9.3903 20.8822 8.63661 20.8822C7.66418 20.8823 7.38879 20.8523 6.65093 20.6661C4.93936 20.2342 3.70714 19.2159 3.22069 17.8313C3.03673 17.3077 2.99826 17.0489 3.00006 16.3469C3.00145 15.806 3.01113 15.6677 3.06496 15.4193C3.38024 13.965 4.25034 13.0233 5.86353 12.3906C6.46511 12.1546 7.04172 12.0041 8.23994 11.7703C9.10245 11.602 10.0128 11.3769 10.4891 11.214C12.127 10.6541 12.9543 9.60872 13.2063 7.78063C13.2671 7.33958 13.2751 6.15187 13.2202 5.71492C13.1422 5.09402 13.0129 4.63219 12.8209 4.28853C12.6861 4.04718 12.385 3.74729 12.1584 3.6288C11.3343 3.19775 9.77291 3.32573 8.56414 3.92343C8.04421 4.18054 7.75378 4.44547 7.75378 4.66276C7.75378 4.72308 7.76244 4.78107 7.77303 4.79164C7.78361 4.80219 8.00507 4.81366 8.26518 4.81712C8.68736 4.82279 8.76604 4.83195 8.99896 4.90273C9.97345 5.19881 10.6888 5.92813 10.9572 6.89945C11.0375 7.18993 11.0664 7.82669 11.014 8.15264C10.7897 9.54828 9.62556 10.708 8.22559 10.9305C7.87506 10.9863 7.20805 10.9536 6.86619 10.864C5.61205 10.5352 4.73398 9.67214 4.41456 8.45417C4.31336 8.06839 4.28765 7.39774 4.35939 7.01502C4.49891 6.27041 4.81633 5.67519 5.38946 5.08333C6.56811 3.86617 8.58249 3.1493 11.202 3.01472C11.7553 2.98629 12.75 3.00048 13.3182 3.04488ZM12.6949 10.2135C12.3041 10.591 11.9464 10.8863 11.5793 11.1344C10.5647 11.8203 10.06 12.8306 9.83425 14.628C9.78879 14.9898 9.78166 15.2766 9.78184 16.7369C9.78207 18.7449 9.82161 19.2763 10.0009 19.6803C10.1264 19.963 10.262 20.0424 10.6223 20.0439C10.8657 20.0449 10.8958 20.0382 11.0716 19.9444C11.3357 19.8036 11.7322 19.4014 11.9957 19.0072C12.4925 18.2641 12.87 17.3284 13.0505 16.3935C13.115 16.0592 13.1153 16.0466 13.1153 12.969C13.1153 10.9345 13.1054 9.87724 13.0863 9.87178C13.0703 9.86724 12.8942 10.021 12.6949 10.2135Z" fill="#FFF1C0"/>
</svg>

<svg xmlns="http://www.w3.org/2000/svg" viewBox="0 0 24 24"><path d="M13.318 3.045c1.124.088 2.175.313 3.044.653.842.33 1.444.707 1.987 1.25.653.65.987 1.265 1.195 2.197.061.273.061.302.077 6.212.015 5.43.02 5.947.064 6.055.22.542.508.769 1.04.815l.275.025-.334.16a5.923 5.923 0 0 1-3.768.468c-.99-.197-1.793-.61-2.434-1.253a4.76 4.76 0 0 1-1.06-1.602l-.162-.39c-.024-.06-.034-.064-.068-.029a4.298 4.298 0 0 0-.232.478c-.333.756-.683 1.305-1.13 1.768-.504.521-1.086.807-1.97.967-.309.056-.452.063-1.206.063-.972 0-1.247-.03-1.985-.216-1.712-.432-2.944-1.45-3.43-2.835-.184-.523-.223-.782-.221-1.484.001-.541.01-.68.065-.928.315-1.454 1.185-2.396 2.798-3.028.602-.236 1.179-.387 2.377-.62.862-.169 1.773-.394 2.249-.557 1.638-.56 2.465-1.605 2.717-3.433.061-.441.069-1.63.014-2.066-.078-.621-.207-1.083-.4-1.426-.134-.242-.435-.542-.662-.66-.824-.431-2.385-.303-3.594.294-.52.258-.81.522-.81.74 0 .06.008.118.019.129.01.01.232.022.492.025.422.006.5.015.734.086a2.852 2.852 0 0 1 1.958 1.996c.08.29.11.928.057 1.254-.225 1.395-1.389 2.555-2.789 2.778a4.267 4.267 0 0 1-1.359-.067c-1.254-.329-2.132-1.192-2.452-2.41-.1-.386-.127-1.056-.055-1.439.14-.745.457-1.34 1.03-1.932 1.179-1.217 3.193-1.934 5.813-2.068a20.576 20.576 0 0 1 2.116.03zm-.623 7.168c-.391.378-.749.673-1.116.921-1.015.686-1.52 1.697-1.745 3.494-.045.362-.052.649-.052 2.109 0 2.008.04 2.54.219 2.943.125.283.26.362.621.364.244 0 .274-.006.45-.1.264-.14.66-.543.924-.937a7.32 7.32 0 0 0 1.054-2.614c.065-.334.065-.346.065-3.424 0-2.034-.01-3.092-.029-3.097-.016-.005-.192.149-.391.342z"/></svg>
